src/site/resources/logos/tfir-logo.svg

<?xml version="1.0" encoding="UTF-8" standalone="no"?>
<svg
   id="tfir-logo"
   class="logo--default"
   alt="Home"
   width="203"
   height="65"
   viewBox="0 0 203 65"
   fill="none"
   version="1.1"
   sodipodi:docname="tfir-logo.svg"
   inkscape:version="1.2-dev (9ee32be, 2021-06-19)"
   xmlns:inkscape="http://www.inkscape.org/namespaces/inkscape"
   xmlns:sodipodi="http://sodipodi.sourceforge.net/DTD/sodipodi-0.dtd"
   xmlns="http://www.w3.org/2000/svg"
   xmlns:svg="http://www.w3.org/2000/svg">
  <defs
     id="defs877" />
  <sodipodi:namedview
     id="namedview875"
     pagecolor="#ffffff"
     bordercolor="#666666"
     borderopacity="1.0"
     inkscape:pageshadow="2"
     inkscape:pageopacity="0.0"
     inkscape:pagecheckerboard="0"
     showgrid="false"
     inkscape:zoom="2"
     inkscape:cx="93.25"
     inkscape:cy="52"
     inkscape:window-width="1512"
     inkscape:window-height="868"
     inkscape:window-x="0"
     inkscape:window-y="38"
     inkscape:window-maximized="0"
     inkscape:current-layer="tfir-logo" />
  <path
     class="tfir-logo-bg tfir-logo-purple"
     d="M 64.4518,0 H 0 v 64.8584 h 64.4518 z"
     fill="#8e7bef"
     id="path824" />
  <path
     d="M 80.0411,2.23353 H 75.0039 V 0 H 87.8631 V 2.23353 H 82.8236 V 16.6284 h -2.7825 z"
     fill="#000000"
     id="path826"
     style="fill:#ffffff" />
  <path
     d="M 100.31,9.36134 H 93.0207 V 16.6261 H 90.2383 V 0 h 2.7824 V 7.13013 H 100.31 V 0 h 2.783 V 16.6284 H 100.31 V 9.36366 Z"
     fill="black"
     id="path828"
     style="fill:#ffffff;fill-opacity:1" />
  <path
     d="m 107.508,0 h 11.739 V 2.37052 H 110.29 V 7.1278 h 7.646 v 2.23354 h -7.646 v 4.89426 h 8.957 v 2.3705 h -11.739 z"
     fill="#000000"
     id="path830"
     style="fill:#ffffff" />
  <path
     d="m 89.8003,27.7538 h -8.2357 v 2.9185 h 7.0386 v 3.6382 h -7.0386 v 6.4312 H 76.9062 V 24.1133 h 12.8941 v 3.6382 z"
     fill="#000000"
     id="path832"
     style="fill:#ffffff" />
  <path
     d="m 107.784,40.7456 h -5.388 l -3.3664,-6.1921 h -1.5783 v 6.1921 H 92.793 V 24.1172 h 7.513 c 1.36,0 2.527,0.2484 3.496,0.7476 0.972,0.4992 1.708,1.1539 2.217,1.9665 0.507,0.8126 0.761,1.6926 0.761,2.6352 0,1.0425 -0.3,1.934 -0.902,2.6747 -0.602,0.7406 -1.33,1.2979 -2.188,1.6717 l 4.091,6.9351 z m -5.66,-11.2744 c 0,-0.2949 -0.082,-0.5712 -0.242,-0.8289 -0.161,-0.2577 -0.395,-0.4644 -0.705,-0.6199 -0.309,-0.1556 -0.667,-0.2322 -1.076,-0.2322 h -2.6474 v 3.3526 h 2.6474 c 0.409,0 0.767,-0.0766 1.076,-0.2321 0.31,-0.1556 0.544,-0.3599 0.705,-0.613 0.16,-0.2531 0.242,-0.5293 0.242,-0.8242 z"
     fill="#000000"
     id="path834"
     style="fill:#ffffff" />
  <path
     d="m 125.635,40.7456 h -4.868 l -0.885,-2.475 h -5.842 l -0.923,2.475 h -4.879 l 6.897,-16.6284 h 3.605 l 6.897,16.6284 z M 118.661,34.86 117.06,30.4231 115.356,34.86 Z"
     fill="#000000"
     id="path836"
     style="fill:#ffffff" />
  <path
     d="m 142.366,40.7456 h -4.073 l -6.076,-8.3606 v 8.3606 h -4.658 V 24.1172 h 4.074 l 6.074,8.3606 v -8.3606 h 4.659 z"
     fill="#000000"
     id="path838"
     style="stroke:none;stroke-opacity:1;fill:#ffffff" />
  <path
     d="m 162.22,40.7453 h -5.426 l -4.372,-6.819 -1.602,1.6089 v 5.2124 h -4.632 V 24.1191 h 4.632 v 5.8857 l 5.491,-5.8857 h 5.699 l -6.48,6.7285 6.687,9.9 z"
     fill="#000000"
     id="path840"
     style="fill:#ffffff" />
  <path
     d="M 176.774,40.7456 H 164.152 V 24.1172 h 4.659 v 12.9902 h 7.963 z"
     fill="#000000"
     id="path842"
     style="fill:#ffffff" />
  <path
     d="M 184.158,40.7456 H 179.5 V 24.1172 h 4.658 z"
     fill="#000000"
     id="path844"
     style="fill:#ffffff" />
  <path
     d="m 202.807,40.7456 h -4.072 l -6.077,-8.3606 v 8.3606 H 188 V 24.1172 h 4.075 l 6.074,8.3606 v -8.3606 h 4.658 z"
     fill="#000000"
     id="path846"
     style="fill:#ffffff" />
  <path
     d="m 76.918,48.2305 h 2.7824 V 64.8589 H 76.918 Z"
     fill="#000000"
     id="path848"
     style="fill:#ffffff" />
  <path
     d="m 83.7875,48.2305 h 2.622 l 8.3218,11.8201 h 0.0511 V 48.2305 h 2.7825 v 16.6284 h -2.636 L 86.6187,53.0388 H 86.5676 V 64.8589 H 83.7852 V 48.2305 Z"
     fill="#000000"
     id="path850"
     style="fill:#ffffff" />
  <path
     d="m 102.78,60.8286 c 1.462,1.0889 3.203,1.6415 5.223,1.6577 2.388,-0.0301 3.599,-0.8033 3.634,-2.3171 0.016,-1.2398 -0.781,-1.9851 -2.395,-2.2381 -0.739,-0.0906 -1.55,-0.1951 -2.433,-0.3088 -1.581,-0.2369 -2.783,-0.7639 -3.606,-1.5858 -0.848,-0.8451 -1.274,-1.8713 -1.274,-3.081 0,-1.4534 0.533,-2.6259 1.6,-3.5151 1.032,-0.8823 2.496,-1.3327 4.393,-1.3466 2.283,0.0464 4.268,0.6175 5.955,1.7181 l -1.55,2.071 c -1.378,-0.8219 -2.896,-1.2491 -4.551,-1.2793 -0.858,0 -1.572,0.195 -2.144,0.5827 -0.597,0.404 -0.904,1.0054 -0.92,1.804 0,0.4783 0.204,0.9125 0.618,1.3002 0.412,0.3947 1.072,0.6687 1.978,0.8219 0.505,0.0767 1.193,0.1626 2.067,0.2624 1.722,0.2136 2.996,0.7731 3.819,1.6786 0.816,0.8916 1.223,1.9248 1.223,3.1042 -0.093,3.1808 -2.241,4.7945 -6.448,4.8409 -2.72,0 -5.059,-0.7569 -7.016,-2.2707 l 1.827,-1.8946 z"
     fill="#000000"
     id="path852"
     style="fill:#ffffff" />
  <path
     d="m 120.963,50.466 h -5.037 v -2.2336 h 12.859 v 2.2336 h -5.04 v 14.3949 h -2.782 z"
     fill="#000000"
     id="path854"
     style="fill:#ffffff" />
  <path
     d="m 131.164,48.2305 h 2.783 v 16.6284 h -2.783 z"
     fill="#000000"
     id="path856"
     style="fill:#ffffff" />
  <path
     d="m 141.154,50.466 h -5.037 v -2.2336 h 12.859 v 2.2336 h -5.039 v 14.3949 h -2.783 z"
     fill="#000000"
     id="path858"
     style="fill:#ffffff" />
  <path
     d="m 151.555,48.2305 h 2.782 v 10.7288 c 0.016,1.133 0.379,1.9967 1.086,2.5911 0.69,0.6246 1.578,0.9357 2.664,0.9357 1.085,0 1.98,-0.3111 2.689,-0.9357 0.69,-0.5944 1.044,-1.4581 1.06,-2.5911 V 48.2305 h 2.782 V 59.224 c -0.032,1.7483 -0.66,3.1367 -1.878,4.1629 -1.227,1.0564 -2.778,1.5928 -4.651,1.609 -1.841,-0.0162 -3.38,-0.5503 -4.614,-1.6067 -1.262,-1.0262 -1.899,-2.4123 -1.916,-4.1582 V 48.2305 Z"
     fill="#000000"
     id="path860"
     style="fill:#ffffff" />
  <path
     d="m 171.799,50.466 h -5.037 v -2.2336 h 12.859 v 2.2336 h -5.04 v 14.3949 h -2.782 z"
     fill="#000000"
     id="path862"
     style="fill:#ffffff" />
  <path
     d="m 182,48.2308 h 11.739 v 2.3706 h -8.957 v 4.7572 h 7.646 v 2.2336 h -7.646 v 4.8942 h 8.957 V 64.857 H 182 V 48.2285 Z"
     fill="#000000"
     id="path864"
     style="fill:#ffffff" />
  <path
     d="M 18.6488,43.316 H 10.1992 V 39.9727 H 31.773 v 3.3433 h -8.4565 v 21.5413 h -4.6677 z"
     fill="#000000"
     id="path866"
     style="fill:#ffffff;stroke:none" />
  <path
     d="m 35.7695,39.9727 h 19.6956 v 3.5476 H 40.4372 v 7.36 h 12.8266 v 3.341 H 40.4372 v 10.636 h -4.6677 z"
     fill="#000000"
     id="path868"
     style="fill:#ffffff;stroke:none" />
  <path
     d="m 59.7852,39.9727 h 4.6676 v 24.8846 h -4.6676 z"
     fill="#000000"
     id="path870"
     style="fill:#ffffff;stroke:none" />
  <path
     d="m 0,0 v 60.1963 4.6621 H 4.66763 8.6472 V 60.1963 H 4.66763 V 4.66209 H 59.7819 V 31.7478 h 4.6676 V 0 Z"
     fill="#000000"
     id="path872"
     style="stroke:none;stroke-opacity:1;fill:#ffffff" />
</svg>

<?xml version="1.0" encoding="UTF-8" standalone="no"?>
<svg
   id="tfir-logo"
   class="logo--default"
   alt="Home"
   width="203"
   height="65"
   viewBox="0 0 203 65"
   fill="none"
   version="1.1"
   sodipodi:docname="tfir-logo.svg"
   inkscape:version="1.2-dev (9ee32be, 2021-06-19)"
   xmlns:inkscape="http://www.inkscape.org/namespaces/inkscape"
   xmlns:sodipodi="http://sodipodi.sourceforge.net/DTD/sodipodi-0.dtd"
   xmlns="http://www.w3.org/2000/svg"
   xmlns:svg="http://www.w3.org/2000/svg">
  <defs
     id="defs877" />
  <sodipodi:namedview
     id="namedview875"
     pagecolor="#ffffff"
     bordercolor="#666666"
     borderopacity="1.0"
     inkscape:pageshadow="2"
     inkscape:pageopacity="0.0"
     inkscape:pagecheckerboard="0"
     showgrid="false"
     inkscape:zoom="1"
     inkscape:cx="132.5"
     inkscape:cy="85"
     inkscape:window-width="1512"
     inkscape:window-height="868"
     inkscape:window-x="0"
     inkscape:window-y="38"
     inkscape:window-maximized="0"
     inkscape:current-layer="tfir-logo" />
  <g
     id="g984">
    <path
       class="tfir-logo-bg tfir-logo-purple"
       d="M64.4518 0H0V64.8584H64.4518V0Z"
       fill="#8E7BEF"
       id="path824" />
    <path
       d="M80.0411 2.23353H75.0039V0H87.8631V2.23353H82.8236V16.6284H80.0411V2.23353Z"
       fill="black"
       id="path826" />
    <path
       d="M100.31 9.36134H93.0207V16.6261H90.2383V0H93.0207V7.13013H100.31V0H103.093V16.6284H100.31V9.36366V9.36134Z"
       fill="black"
       id="path828" />
    <path
       d="M107.508 0H119.247V2.37052H110.29V7.1278H117.936V9.36134H110.29V14.2556H119.247V16.6261H107.508V0Z"
       fill="black"
       id="path830" />
    <path
       d="M89.8003 27.7538H81.5646V30.6723H88.6032V34.3105H81.5646V40.7417H76.9062V24.1133H89.8003V27.7515V27.7538Z"
       fill="black"
       id="path832" />
    <path
       d="M107.784 40.7456H102.396L99.0296 34.5535H97.4513V40.7456H92.793V24.1172H100.306C101.666 24.1172 102.833 24.3656 103.802 24.8648C104.774 25.364 105.51 26.0187 106.019 26.8313C106.526 27.6439 106.78 28.5239 106.78 29.4665C106.78 30.509 106.48 31.4005 105.878 32.1412C105.276 32.8818 104.548 33.4391 103.69 33.8129L107.781 40.748L107.784 40.7456ZM102.124 29.4712C102.124 29.1763 102.042 28.9 101.882 28.6423C101.721 28.3846 101.487 28.1779 101.177 28.0224C100.868 27.8668 100.51 27.7902 100.101 27.7902H97.4536V31.1428H100.101C100.51 31.1428 100.868 31.0662 101.177 30.9107C101.487 30.7551 101.721 30.5508 101.882 30.2977C102.042 30.0446 102.124 29.7684 102.124 29.4735V29.4712Z"
       fill="black"
       id="path834" />
    <path
       d="M125.635 40.7456H120.767L119.882 38.2706H114.04L113.117 40.7456H108.238L115.135 24.1172H118.74L125.637 40.7456H125.635ZM118.661 34.86L117.06 30.4231L115.356 34.86H118.661Z"
       fill="black"
       id="path836" />
    <path
       d="M142.366 40.7456H138.293L132.217 32.385V40.7456H127.559V24.1172H131.633L137.707 32.4778V24.1172H142.366V40.7456Z"
       fill="black"
       id="path838" />
    <path
       d="M162.22 40.7453H156.794L152.422 33.9263L150.82 35.5352V40.7476H146.188V24.1191H150.82V30.0048L156.311 24.1191H162.01L155.53 30.8476L162.217 40.7476L162.22 40.7453Z"
       fill="black"
       id="path840" />
    <path
       d="M176.774 40.7456H164.152V24.1172H168.811V37.1074H176.774V40.7456Z"
       fill="black"
       id="path842" />
    <path
       d="M184.158 40.7456H179.5V24.1172H184.158V40.7456Z"
       fill="black"
       id="path844" />
    <path
       d="M202.807 40.7456H198.735L192.658 32.385V40.7456H188V24.1172H192.075L198.149 32.4778V24.1172H202.807V40.7456Z"
       fill="black"
       id="path846" />
    <path
       d="M76.918 48.2305H79.7004V64.8589H76.918V48.2305Z"
       fill="black"
       id="path848" />
    <path
       d="M83.7875 48.2305H86.4095L94.7313 60.0506H94.7824V48.2305H97.5649V64.8589H94.9289L86.6187 53.0388H86.5676V64.8589H83.7852V48.2305H83.7875Z"
       fill="black"
       id="path850" />
    <path
       d="M102.78 60.8286C104.242 61.9175 105.983 62.4701 108.003 62.4863C110.391 62.4562 111.602 61.683 111.637 60.1692C111.653 58.9294 110.856 58.1841 109.242 57.9311C108.503 57.8405 107.692 57.736 106.809 57.6223C105.228 57.3854 104.026 56.8584 103.203 56.0365C102.355 55.1914 101.929 54.1652 101.929 52.9555C101.929 51.5021 102.462 50.3296 103.529 49.4404C104.561 48.5581 106.025 48.1077 107.922 48.0938C110.205 48.1402 112.19 48.7113 113.877 49.8119L112.327 51.8829C110.949 51.061 109.431 50.6338 107.776 50.6036C106.918 50.6036 106.204 50.7986 105.632 51.1863C105.035 51.5903 104.728 52.1917 104.712 52.9903C104.712 53.4686 104.916 53.9028 105.33 54.2905C105.742 54.6852 106.402 54.9592 107.308 55.1124C107.813 55.1891 108.501 55.275 109.375 55.3748C111.097 55.5884 112.371 56.1479 113.194 57.0534C114.01 57.945 114.417 58.9782 114.417 60.1576C114.324 63.3384 112.176 64.9521 107.969 64.9985C105.249 64.9985 102.91 64.2416 100.953 62.7278L102.78 60.8332V60.8286Z"
       fill="black"
       id="path852" />
    <path
       d="M120.963 50.466H115.926V48.2324H128.785V50.466H123.745V64.8609H120.963V50.466Z"
       fill="black"
       id="path854" />
    <path
       d="M131.164 48.2305H133.947V64.8589H131.164V48.2305Z"
       fill="black"
       id="path856" />
    <path
       d="M141.154 50.466H136.117V48.2324H148.976V50.466H143.937V64.8609H141.154V50.466Z"
       fill="black"
       id="path858" />
    <path
       d="M151.555 48.2305H154.337V58.9593C154.353 60.0923 154.716 60.956 155.423 61.5504C156.113 62.175 157.001 62.4861 158.087 62.4861C159.172 62.4861 160.067 62.175 160.776 61.5504C161.466 60.956 161.82 60.0923 161.836 58.9593V48.2305H164.618V59.224C164.586 60.9723 163.958 62.3607 162.74 63.3869C161.513 64.4433 159.962 64.9797 158.089 64.9959C156.248 64.9797 154.709 64.4456 153.475 63.3892C152.213 62.363 151.576 60.9769 151.559 59.231V48.2305H151.555Z"
       fill="black"
       id="path860" />
    <path
       d="M171.799 50.466H166.762V48.2324H179.621V50.466H174.581V64.8609H171.799V50.466Z"
       fill="black"
       id="path862" />
    <path
       d="M182 48.2308H193.739V50.6014H184.782V55.3586H192.428V57.5922H184.782V62.4864H193.739V64.857H182V48.2285V48.2308Z"
       fill="black"
       id="path864" />
    <path
       d="M18.6488 43.316H10.1992V39.9727H31.773V43.316H23.3165V64.8573H18.6488V43.316Z"
       fill="black"
       id="path866" />
    <path
       d="M35.7695 39.9727H55.4651V43.5203H40.4372V50.8803H53.2638V54.2213H40.4372V64.8573H35.7695V39.9727Z"
       fill="black"
       id="path868" />
    <path
       d="M59.7852 39.9727H64.4528V64.8573H59.7852V39.9727Z"
       fill="black"
       id="path870" />
    <path
       d="M0 0V60.1963V64.8584H4.66763H8.6472V60.1963H4.66763V4.66209H59.7819V31.7478H64.4495V0H0Z"
       fill="black"
       id="path872" />
  </g>
</svg>
